IconSet/boxicons.iconjar/icons/bx-library.svg

<svg xmlns="http://www.w3.org/2000/svg" width="24" height="24" viewBox="0 0 24 24"><path d="M7 3h2v18H7zM4 3h2v18H4zm6 0h2v18h-2zm9.062 17.792-6.223-16.89 1.877-.692 6.223 16.89z"/></svg>

<svg xmlns="http://www.w3.org/2000/svg" width="24" height="24" viewBox="0 0 24 24"><path d="M7 3H9V21H7zM4 3H6V21H4zM10 3H12V21H10z"/><path transform="scale(-1) rotate(69.775 17.21 -24.221)" d="M7.888 11H25.887999999999998V13H7.888z"/></svg>
